icons/login.svg

<svg fill="none" height="28" viewBox="0 0 28 28" width="28" xmlns="http://www.w3.org/2000/svg"><g fill="#fff" opacity=".9"><path d="m7.67341 3c.55186.00032.99975.44812 1 1 0 2.73473-.91096 5.25724-1.62207 7.8428-.00968.0351-.0187.0711-.02833.1064.88451-.0241 1.92572-.2348 3.09179-.4834.7489-.1596 1.5409-.3303 2.2891-.4267.4359-.0562.8852-.0913 1.3271-.0801.4198-1.95754.751-4.10937.751-6.93459 0-.55228.4477-1 1-1 .5518.00054 1 .44805 1 1 0 4.56519-.8193 7.52549-1.499 10.36619-.6704 2.8016-1.2217 5.5365-.8135 9.8233.052.5493-.3512 1.037-.9004 1.0898-.5497.0524-1.0383-.3507-1.0908-.9004-.4378-4.5975.1645-7.5747.8594-10.4785.0764-.3192.1514-.6376.2285-.956-.1875.0103-.39.0268-.6065.0546-.6514.084-1.3594.2346-2.1279.3985-1.23067.2623-2.67863.5781-4 .5205-.44776 2.0965-.70284 4.4428-.40234 7.2988.05777.549-.34073 1.0415-.88965 1.0996-.54903.0577-1.04067-.3406-1.09863-.8896-.44122-4.1928.22547-7.3864.98242-10.1387.76954-2.79796 1.54981-4.93013 1.54981-7.3125.00024-.55192.44807-.99975 1-1z"/><path d="m18.7593 12.6426c.0904-.5446.6058-.9133 1.1504-.8233.5448.0904.9136.6057.8233 1.1504-.15.9039-.3493 1.6081-.5479 2.2256-.2063.6414-.3766 1.0924-.5244 1.6397-.2701 1.0003-.4323 2.2356-.124 4.6894.0685.5475-.3198 1.047-.8672 1.1162-.5476.0688-1.0478-.3188-1.1172-.8662-.3332-2.6521-.1742-4.1577.1777-5.4609.1632-.6042.3801-1.1967.5518-1.7305.1793-.5577.3484-1.1626.4775-1.9404z"/><path d="m21.8101 5.96777c.5506-.03998 1.0301.37319 1.0703.92383.04.54807-.05 1.03194-.2763 1.44922-.2213.40757-.5283.66666-.7666.83789-.1141.08192-.2334.1587-.3106.20899-.0862.05615-.1358.09057-.1719.11914-.1558.48533-.658.78246-1.166.67086-.5389-.1186-.8797-.65235-.7617-1.19137l.0508-.18457c.1387-.40941.4057-.68011.625-.85547.1194-.0954.2418-.1766.332-.23535.1016-.06619.1689-.10758.2354-.15528.1226-.08811.1587-.13767.1758-.16894.0121-.02243.0564-.11101.039-.34961-.0401-.55057.3743-1.02891.9248-1.06934z"/></g></svg>

<svg width="28" height="28" viewBox="0 0 28 28" fill="none" xmlns="http://www.w3.org/2000/svg">
<g opacity="0.9">
<path d="M7.67341 3C8.22527 3.00032 8.67316 3.44812 8.67341 4C8.67341 6.73473 7.76245 9.25724 7.05134 11.8428C7.04166 11.8779 7.03264 11.9139 7.02301 11.9492C7.90752 11.9251 8.94873 11.7144 10.1148 11.4658C10.8637 11.3062 11.6557 11.1355 12.4039 11.0391C12.8398 10.9829 13.2891 10.9478 13.731 10.959C14.1508 9.00146 14.482 6.84963 14.482 4.02441C14.482 3.47213 14.9297 3.02441 15.482 3.02441C16.0338 3.02495 16.482 3.47246 16.482 4.02441C16.482 8.5896 15.6627 11.5499 14.983 14.3906C14.3126 17.1922 13.7613 19.9271 14.1695 24.2139C14.2215 24.7632 13.8183 25.2509 13.2691 25.3037C12.7194 25.3561 12.2308 24.953 12.1783 24.4033C11.7405 19.8058 12.3428 16.8286 13.0377 13.9248C13.1141 13.6056 13.1891 13.2872 13.2662 12.9688C13.0787 12.9791 12.8762 12.9956 12.6597 13.0234C12.0083 13.1074 11.3003 13.258 10.5318 13.4219C9.30113 13.6842 7.85317 14 6.5318 13.9424C6.08404 16.0389 5.82896 18.3852 6.12946 21.2412C6.18723 21.7902 5.78873 22.2827 5.23981 22.3408C4.69078 22.3985 4.19914 22.0002 4.14118 21.4512C3.69996 17.2584 4.36665 14.0648 5.1236 11.3125C5.89314 8.51454 6.67341 6.38237 6.67341 4C6.67365 3.44808 7.12148 3.00025 7.67341 3Z" fill="white"/>
<path d="M18.7593 12.6426C18.8497 12.098 19.3651 11.7293 19.9097 11.8193C20.4545 11.9097 20.8233 12.425 20.733 12.9697C20.583 13.8736 20.3837 14.5778 20.1851 15.1953C19.9788 15.8367 19.8085 16.2877 19.6607 16.835C19.3906 17.8353 19.2284 19.0706 19.5367 21.5244C19.6052 22.0719 19.2169 22.5714 18.6695 22.6406C18.1219 22.7094 17.6217 22.3218 17.5523 21.7744C17.2191 19.1223 17.3781 17.6167 17.73 16.3135C17.8932 15.7093 18.1101 15.1168 18.2818 14.583C18.4611 14.0253 18.6302 13.4204 18.7593 12.6426Z" fill="white"/>
<path d="M21.8101 5.96777C22.3607 5.92779 22.8402 6.34096 22.8804 6.8916C22.9204 7.43967 22.8304 7.92354 22.6041 8.34082C22.3828 8.74839 22.0758 9.00748 21.8375 9.17871C21.7234 9.26063 21.6041 9.33741 21.5269 9.3877C21.4407 9.44385 21.3911 9.47827 21.355 9.50684C21.1992 9.99217 20.697 10.2893 20.189 10.1777C19.6501 10.0591 19.3093 9.52535 19.4273 8.98633L19.4781 8.80176C19.6168 8.39235 19.8838 8.12165 20.1031 7.94629C20.2225 7.85089 20.3449 7.76969 20.4351 7.71094C20.5367 7.64475 20.604 7.60336 20.6705 7.55566C20.7931 7.46755 20.8292 7.41799 20.8463 7.38672C20.8584 7.36429 20.9027 7.27571 20.8853 7.03711C20.8452 6.48654 21.2596 6.0082 21.8101 5.96777Z" fill="white"/>
</g>
</svg>
